X:427
T:Reel 427
M:4/4
K:Gmaj
L:1/8
G2BG dGBG|ADDD cdef|g2BG dGBG|ADDC DcBA|G2BG dGBG|ADDC DB (3cBA |gggf egfgdB|cBAB cdeg|g2bg dgBg|g2bg fgaf|g2bg dgbg|gedB cBAc|g2bg dgbg|gbab c'2bc'| (3bc'b  (3c'ba gefede|fdcB ABcA|
